_inc/systems/logos/completed.svg

<?xml version="1.0" encoding="utf-8"?>
<svg viewBox="0 0 200 40" xmlns="http://www.w3.org/2000/svg">
  <g transform="matrix(1, 0, 0, 1, 8.546387, 0)">
    <path d="M 42.39 24.005 L 41.91 29.045 C 40.63 29.565 39.01 29.825 37.05 29.825 C 34.53 29.825 32.725 29.335 31.635 28.355 C 30.545 27.375 30 25.865 30 23.825 C 30 22.965 30.14 21.695 30.42 20.015 C 31.02 16.575 32.055 14.075 33.525 12.515 C 34.995 10.955 37.32 10.175 40.5 10.175 C 41.24 10.175 42.085 10.25 43.035 10.4 C 43.985 10.55 44.68 10.735 45.12 10.955 L 43.44 15.545 C 42.26 15.265 41.155 15.125 40.125 15.125 C 39.095 15.125 38.36 15.225 37.92 15.425 C 37.48 15.625 37.21 16.025 37.11 16.625 L 35.73 24.485 C 36.45 24.645 37.19 24.725 37.95 24.725 C 39.57 24.725 41.05 24.485 42.39 24.005 Z M 51.959 16.895 L 50.579 24.695 L 52.949 24.695 C 53.729 24.695 54.309 24.6 54.689 24.41 C 55.069 24.22 55.319 23.785 55.439 23.105 L 56.819 15.305 L 54.419 15.305 C 53.659 15.305 53.089 15.4 52.709 15.59 C 52.329 15.78 52.079 16.215 51.959 16.895 Z M 55.409 10.175 C 57.949 10.175 59.759 10.67 60.839 11.66 C 61.919 12.65 62.459 14.175 62.459 16.235 C 62.459 18.295 62.134 20.45 61.484 22.7 C 60.834 24.95 59.804 26.7 58.394 27.95 C 56.984 29.2 54.924 29.825 52.214 29.825 C 49.504 29.825 47.609 29.33 46.529 28.34 C 45.449 27.35 44.909 25.825 44.909 23.765 C 44.909 22.785 45.049 21.49 45.329 19.88 C 45.609 18.27 45.979 16.88 46.439 15.71 C 46.899 14.54 47.519 13.525 48.299 12.665 C 49.799 11.005 52.169 10.175 55.409 10.175 Z M 68.788 29.375 L 62.848 29.375 L 67.228 10.625 L 74.668 10.625 L 75.208 20.165 L 75.418 20.165 L 79.318 10.625 L 86.758 10.625 L 84.538 29.375 L 78.568 29.375 L 79.828 20.285 L 79.618 20.285 L 75.868 29.375 L 71.518 29.375 L 70.888 20.285 L 70.738 20.285 L 68.788 29.375 Z M 97.918 24.845 L 94.198 24.845 L 93.418 29.375 L 87.718 29.375 L 91.018 10.625 L 100.018 10.625 C 103.418 10.625 105.118 12.205 105.118 15.365 C 105.118 16.865 104.908 18.22 104.488 19.43 C 104.068 20.64 103.603 21.6 103.093 22.31 C 102.583 23.02 101.883 23.62 100.993 24.11 C 100.103 24.6 99.078 24.845 97.918 24.845 Z M 95.848 15.425 L 95.038 20.045 L 96.358 20.045 C 97.038 20.045 97.553 19.97 97.903 19.82 C 98.253 19.67 98.478 19.325 98.578 18.785 C 98.838 17.305 98.968 16.495 98.968 16.355 C 98.968 15.975 98.818 15.725 98.518 15.605 C 98.218 15.485 97.768 15.425 97.168 15.425 L 95.848 15.425 Z M 116.307 29.375 L 104.907 29.375 L 108.207 10.625 L 113.907 10.625 L 111.447 24.575 L 117.147 24.575 L 116.307 29.375 Z M 130.318 22.295 L 124.618 22.295 L 124.228 24.575 L 131.218 24.575 L 130.378 29.375 L 117.688 29.375 L 120.988 10.625 L 133.528 10.625 L 131.968 15.425 L 125.818 15.425 L 125.398 17.945 L 131.098 17.945 L 130.318 22.295 Z M 148.617 15.425 L 144.477 15.425 L 142.047 29.375 L 136.347 29.375 L 138.777 15.425 L 134.667 15.425 L 135.537 10.625 L 149.487 10.625 L 148.617 15.425 Z M 161.216 22.295 L 155.516 22.295 L 155.126 24.575 L 162.116 24.575 L 161.276 29.375 L 148.586 29.375 L 151.886 10.625 L 164.426 10.625 L 162.866 15.425 L 156.716 15.425 L 156.296 17.945 L 161.996 17.945 L 161.216 22.295 Z M 164.487 29.375 L 167.787 10.625 L 175.767 10.625 C 178.347 10.625 180.182 11.08 181.272 11.99 C 182.362 12.9 182.907 14.375 182.907 16.415 C 182.907 17.455 182.787 18.655 182.547 20.015 C 181.947 23.375 180.922 25.775 179.472 27.215 C 178.022 28.655 175.687 29.375 172.467 29.375 L 164.487 29.375 Z M 174.987 15.425 L 172.617 15.425 L 171.027 24.575 L 173.397 24.575 C 174.177 24.575 174.757 24.48 175.137 24.29 C 175.517 24.1 175.767 23.665 175.887 22.985 L 176.937 17.015 C 176.957 16.895 176.967 16.735 176.967 16.535 C 176.967 16.075 176.807 15.775 176.487 15.635 C 176.167 15.495 175.667 15.425 174.987 15.425 Z" style="white-space: pre; fill: rgb(255, 255, 255); transform-box: fill-box; transform-origin: 50% 50%;"/>
    <path d="M 12.018 32 C 21.256 32 27.029 22 22.41 14 C 20.267 10.288 16.305 8 12.018 8 C 2.78 8 -2.993 18 1.626 26 C 3.769 29.713 7.731 32 12.018 32 Z M 17.315 17.797 L 11.315 23.797 C 10.874 24.238 10.162 24.238 9.726 23.797 L 6.726 20.797 C 6.285 20.357 6.285 19.644 6.726 19.208 C 7.166 18.772 7.879 18.768 8.315 19.208 L 10.518 21.411 L 15.721 16.204 C 16.162 15.763 16.874 15.763 17.31 16.204 C 17.746 16.644 17.751 17.357 17.31 17.793 L 17.315 17.797 Z" style="fill: rgb(255, 255, 255); transform-box: fill-box; transform-origin: 50% 50%;"/>
  </g>
</svg>

<svg xmlns="http://www.w3.org/2000/svg" viewBox="0 0 200 40"><path d="m42.39 24-.48 5.05q-1.92.78-4.86.77-3.78 0-5.41-1.46-1.65-1.48-1.64-4.53 0-1.29.42-3.81.9-5.16 3.1-7.5t6.98-2.34q1.12 0 2.53.22 1.43.22 2.09.55l-1.68 4.6a14 14 0 0 0-3.31-.43q-1.55 0-2.21.3t-.81 1.2l-1.38 7.86q1.08.25 2.22.25 2.43 0 4.44-.73m9.57-7.1-1.38 7.8h2.37q1.17 0 1.74-.29t.75-1.3l1.38-7.8h-2.4q-1.14 0-1.71.28t-.75 1.3m3.45-6.72q3.81 0 5.43 1.48 1.62 1.49 1.62 4.57 0 3.1-.98 6.47t-3.09 5.25-6.18 1.88-5.68-1.49-1.62-4.57q0-1.47.42-3.89t1.1-4.17a10 10 0 0 1 1.87-3.05q2.25-2.48 7.1-2.48m13.38 19.2h-5.94l4.38-18.75h7.44l.54 9.53h.2l3.9-9.53h7.45l-2.22 18.74h-5.97l1.26-9.09h-.21l-3.75 9.1h-4.35l-.63-9.1h-.15zm29.13-4.53H94.2l-.78 4.52h-5.7l3.3-18.74h9q5.1 0 5.1 4.73a12.3 12.3 0 0 1-2.03 6.95 6.2 6.2 0 0 1-5.17 2.54m-2.07-9.43-.81 4.63h1.32q1.03 0 1.54-.23.53-.23.68-1.04.39-2.21.39-2.43 0-.57-.45-.75t-1.35-.17zm20.46 13.96h-11.4l3.3-18.75h5.7l-2.46 13.94h5.7zm14-7.08h-5.7l-.38 2.27h6.99l-.84 4.8h-12.7l3.3-18.74h12.55l-1.56 4.8h-6.15l-.42 2.52h5.7zm18.3-6.87h-4.13l-2.43 13.95h-5.7l2.43-13.95h-4.11l.87-4.8h13.95zm12.6 6.87h-5.7l-.38 2.27h6.99l-.84 4.8h-12.7l3.3-18.74h12.55l-1.56 4.8h-6.15l-.42 2.52h5.7zm3.28 7.07 3.3-18.74h7.98q3.87 0 5.5 1.36 1.64 1.36 1.64 4.42 0 1.57-.36 3.6-.9 5.04-3.08 7.2-2.17 2.17-7 2.16zm10.5-13.94h-2.37l-1.6 9.15h2.38q1.17 0 1.74-.29t.75-1.3l1.05-5.97q.03-.19.03-.48 0-.69-.48-.9a4 4 0 0 0-1.5-.21" style="white-space:pre;fill:#fff;transform-box:fill-box;transform-origin:50% 50%" transform="translate(8.55)"/><path d="M12.02 32a12 12 0 1 0 0-24 12 12 0 0 0 0 24m5.3-14.2-6 6c-.45.44-1.16.44-1.6 0l-3-3a1.13 1.13 0 0 1 1.59-1.59l2.2 2.2 5.21-5.2a1.12 1.12 0 0 1 1.59 1.59" style="fill:#fff;transform-box:fill-box;transform-origin:50% 50%" transform="translate(8.55)"/></svg>
